X:1
T:Title
%%score ( 1 2 ) { 3 | 4 }
L:1/8
Q:1/4=83
M:6/8
K:E
V:1 treble nm="Grand Piano, Soprano"
V:2 treble 
V:3 treble nm="Choir Pad, Pilot Me, Lelia Morris"
V:4 bass 
V:1
 [GB]/[GB]<[GB][FA]/ [EG][DF][EG] | [DF] B,2- B,/ z/ [B,E]2 | [GB]/[GB]<[GB][FA]/ [EG][DF]B, | %3
w: By~Lelia~Naylor~Morris * * * * * *|||
 [DA] [EG]2- [EG]2- [EG]/ z/ | [EG]/[EG]<[FG][FA]/ [FG][EG]>[EA] | [EG] [Ec]2- [Ec] [EG]2 | %6
w: |||
 [EG]/[EG]/[EF][E^A] [Ec][Ge][Fd] | [Ec] [DB]2- [DB]2- [DB]/ z/ | z3 z B2- | B3 z3 | %10
w: ||||
 z [CE]2- [CE] [CA]2- | [CA] [B,G]2- [B,G]2- [B,G]/ z/ | z3 z .A2 | [DF] [EG]2 [FA] [GB]2- | %14
w: ||||
 [GB] [Ac]2 [Ac]cd | [Ee] [EB]2 [EG] [DF]2- | [DF] [EB]2- [EB] [DA]2- | %17
w: |||
 [DA] [EG]2- [EG]2- [EG]/ z/ | z [EA]2- [EA] [Ec]2- | [Ec] [EB]2- [EB]2- [EB]/ z/ | z3 z E2- | %21
w: ||||
 E3 z3 | z6 | z6 | z6 |] %25
w: ||||
V:2
 x6 | x6 | x6 | x6 | x6 | x6 | x6 | x6 | z [EB]2- [EB]DE | F [EB]2 z3 | x6 | x6 | %12
 z [DF]2 [EG]D-[DG] | x6 | z3 z E2 | x6 | x6 | x6 | x6 | x6 | z E2 C ^A,2 | %21
 ^A, [B,E]2- [B,E] [B,D]2- | [B,D] [B,E]2- [B,E] [CE]2- | [CE] [B,E]2- [B,E]3- | [B,E]3 z3 |] %25
V:3
 C/C<CB,/ B,[K:bass]B,B, | A, G,2- G, G,2 | E/E<EB,/ B,[K:bass]B,A, | B, B,2- B,2- B,/ z/ | %4
 B,/B,<[K:treble]^B,B,/ B,C>C | C G,2- G, C2 | C/C/[K:bass]^A,C A,A,A, | ^A, F,2- F,2- F,/ z/ | %8
 z G,2- G,F,G, | A, G,2 B,CB, | A, A,2- A, E,2- | E, E,2 E, E,2 | z B,2 B, B,2 | %13
 B, B,2[K:treble] E E2- | E E2 E C2 | C[K:bass] B,2 B, B,2- | B, B,2 B, B,2- | %17
 B, B,2 B,[K:treble] C2 | z C2- C A,2- | A,[K:bass] G,2 G, G,2 | z G,2 E, =G,2 | =G, ^G,2- G,F,G, | %22
 A, G,2- G, A,2- | A, G,2- G,3- | G,3 z3 |] %25
V:4
 E,/E,<E,E,/ E,B,,B,, | B,, E,2- E, E,2 | E,/E,<E,E,/ E,B,,B,, | B,, E,2- E,2- E,/ z/ | %4
 E,/E,<D,D,/ D,C,>C, | C, C,2- C, C,2 | C,/C,/F,F, F,F,F, | F, B,,2- B,,2- B,,/ z/ | %8
 z E,2- E, B,,2- | B,, E,2 z3 | z A,,2- A,, A,,2- | A,,3 z3 | z A,2 G, F,2 | B,, E,2 E, E,2- | %14
 E, A,2 A, A,2 | A, G,2 E, B,,2- | B,, G,2 G, F,2- | F, E,2 E, C,2 | z A,,2- A,, A,,2- | %19
 A,, E,2 E, E,2 | z C,2 C, ^B,,2 | ^B,, =B,,2- B,, B,,2- | B,, E,2- E, E,2- | E, E,2- E,3- | %24
 E,3 z3 |] %25

